src/next/cmd/lc_glueeditmode.svg

<svg height="24" width="24" xmlns="http://www.w3.org/2000/svg" xmlns:xlink="http://www.w3.org/1999/xlink"><linearGradient id="a" gradientTransform="matrix(.5833334 0 0 .4444446 6.666668 -4.444444)" gradientUnits="userSpaceOnUse" x1="36.571423" x2="112" y1="144.99995" y2="27.999998"><stop offset="0" stop-color="#fff"/><stop offset=".42597079" stop-color="#fff"/><stop offset=".5892781" stop-color="#f1f1f1"/><stop offset=".80219781" stop-color="#eaeaea"/><stop offset="1" stop-color="#dfdfdf"/></linearGradient><linearGradient id="b" gradientTransform="matrix(.06477709 0 0 .06505961 7.795886 -31.751767)" gradientUnits="userSpaceOnUse" x1="399.77466" x2="399.77466" y1="1164.6696" y2="549.06134"><stop offset="0" stop-color="#a7a7a9"/><stop offset=".5" stop-color="#7d7d83"/><stop offset="1" stop-color="#aaaab1"/></linearGradient><linearGradient id="c" gradientTransform="matrix(.7098215 0 0 .4598215 -.948662 .642857)" gradientUnits="userSpaceOnUse" x1="77.5625" x2="108.625" y1="32" y2="32"><stop offset="0" stop-color="#fff"/><stop offset="1" stop-color="#fff" stop-opacity="0"/></linearGradient><linearGradient id="d" gradientTransform="matrix(.99999997 0 0 .57322316 -14.852818 59.545942)" gradientUnits="userSpaceOnUse" x1="58.852818" x2="151.32086" y1="-16.142143" y2="-19.120222"><stop offset="0" stop-color="#06f"/><stop offset="1" stop-color="#80b3ff"/></linearGradient><linearGradient id="e" gradientTransform="matrix(.99999999 0 0 .50000003 64.142139 -28.573589)" gradientUnits="userSpaceOnUse" x1="-21.213205" x2="25.455845" y1="-80.024391" y2="-104.6518"><stop offset="0" stop-color="#0968ef"/><stop offset="1" stop-color="#aecffc"/></linearGradient><linearGradient id="f" gradientUnits="userSpaceOnUse" x1="104.00008" x2="104.00008" y1="55.600807" y2="162.26588"><stop offset="0" stop-color="#99999c"/><stop offset=".5" stop-color="#9c9ca1"/><stop offset="1" stop-color="#cdcdd1"/></linearGradient><linearGradient id="g" gradientUnits="userSpaceOnUse" x1="85.394646" x2="123.64955" y1="94.381111" y2="115.1846"><stop offset="0" stop-color="#fff"/><stop offset="1" stop-color="#ccc"/></linearGradient><linearGradient id="h" gradientUnits="userSpaceOnUse" x1="88.38102" x2="130.48599" y1="1008.9966" y2="1015.6953"><stop offset="0" stop-color="#7b7b7b"/><stop offset="1" stop-color="#797979" stop-opacity="0"/></linearGradient><filter id="i" color-interpolation-filters="sRGB" height="1.073732" width="1.13754" x="-.06877" y="-.036866"><feGaussianBlur stdDeviation="1.0557314"/></filter><linearGradient id="j" gradientUnits="userSpaceOnUse" x1="105.76633" x2="120.06033" y1="47.759666" y2="87.113503"><stop offset="0" stop-color="#fff" stop-opacity=".683453"/><stop offset="1" stop-color="#fff" stop-opacity="0"/></linearGradient><linearGradient id="k" gradientTransform="matrix(.53433953 0 0 .61119966 70.330321 -506.53199)" gradientUnits="userSpaceOnUse" x1="63.011921" x2="63.011921" y1="945.89801" y2="1033.1569"><stop offset="0" stop-color="#545454" stop-opacity=".988"/><stop offset="1" stop-color="#ebebeb"/></linearGradient><linearGradient id="l" gradientTransform="matrix(.44041585 0 0 .60663672 131.34153 -517.37269)" gradientUnits="userSpaceOnUse" x1="-60.535713" x2="-60.357143" y1="979.50507" y2="1009.505"><stop offset="0" stop-color="#979797"/><stop offset=".148461" stop-color="#f6f6f6"/><stop offset=".28399727" stop-color="#e2e2e2"/><stop offset=".41198727" stop-color="#dedede"/><stop offset=".41198727" stop-color="#f6f6f6"/><stop offset="1" stop-color="#6b6b6b"/></linearGradient><linearGradient id="m" gradientTransform="matrix(.44041583 0 0 -.53450186 131.37093 -445.18578)" gradientUnits="userSpaceOnUse" x1="-61.078979" x2="-60.6413" y1="-1056.658" y2="-1010.9131"><stop offset="0" stop-color="#777"/><stop offset=".18176934" stop-color="#a8a8a8"/><stop offset=".22864534" stop-color="#cdcdcd"/><stop offset=".34561315" stop-color="#f7f7f7"/><stop offset="1" stop-color="#fff"/></linearGradient><g transform="matrix(.25 0 0 .25 0 2)"><rect fill="url(#b)" height="80" rx="4.144231" width="80" x="8"/><rect fill="url(#a)" fill-rule="evenodd" height="72" rx="1.5" ry="1.444445" width="72" x="12" y="4"/><path d="m64 4c-7.583425 4.335233-33.575415 66.309995-38.004046 72h19.320452c1.082101-5.447495 23.343355-67.654296 28-72z" fill="url(#c)" fill-rule="evenodd"/><g transform="matrix(-.48613591 .48613591 .48613591 .48613591 60.552606 -20.400361)"><path d="m44.883804 46.449421h52.36364v5.818183h-52.36364z" fill="url(#d)"/><path d="m23.176695-73.974716h52.363636v5.818183h-52.363636z" fill="url(#e)" transform="rotate(90)"/></g><g transform="matrix(.75 0 0 .75 -1.999997 -9.7)"><path d="m77.333809 55.600821h53.332541v74.665599h-53.332541z" fill="url(#f)" stroke-width=".916666"/><path d="m82.667064 60.934061h42.666026v63.999069h-42.666026z" fill="url(#g)" stroke-width=".916666"/><path d="m92.81509 1029.6319c1.071428 1.4286 10.71429 15.3572 11.78571 13.5715 1.07143-1.7858 22.1275-24.0868 20.69893-25.5154-1.42857-1.4285-29.627497-43.05607-29.627497-43.05607z" fill="url(#h)" fill-rule="evenodd" filter="url(#i)" opacity=".68" transform="matrix(.63533481 0 0 .63533481 51.059149 -537.63947)"/><g stroke-width=".916666"><path d="m82.667064 60.934061v43.340549c12.990679-15.125081 30.743576-21.227552 42.665656-22.93708v-20.40298z" fill="url(#j)" fill-rule="evenodd"/><path d="m93.333572 71.600569h21.333018v42.666031h-21.333018z" fill="url(#k)"/><path d="m95.766494 74.165334h16.212816v37.734266h-16.212816z" fill="#535353"/><path d="m98.666826 76.933823h10.666504v15.999763h-10.666504z" fill="url(#l)"/><path d="m98.666826 119.59986h10.666504v-26.666274h-10.666504z" fill="url(#m)"/></g></g></g></svg>

<?xml version="1.0" encoding="UTF-8" standalone="no"?>
<!-- Created with Inkscape (http://www.inkscape.org/) -->

<svg
   xmlns:dc="http://purl.org/dc/elements/1.1/"
   xmlns:cc="http://creativecommons.org/ns#"
   xmlns:rdf="http://www.w3.org/1999/02/22-rdf-syntax-ns#"
   xmlns:svg="http://www.w3.org/2000/svg"
   xmlns="http://www.w3.org/2000/svg"
   xmlns:xlink="http://www.w3.org/1999/xlink"
   xmlns:sodipodi="http://sodipodi.sourceforge.net/DTD/sodipodi-0.dtd"
   xmlns:inkscape="http://www.inkscape.org/namespaces/inkscape"
   width="24"
   height="24"
   id="svg3408"
   sodipodi:version="0.32"
   inkscape:version="0.92.4 (unknown)"
   version="1.0"
   sodipodi:docname="lc_glueeditmode.svg"
   inkscape:output_extension="org.inkscape.output.svgz.inkscape"
   inkscape:export-filename="/home/rizmut/Dokumen/Rizmut/Github/libreoffice-style-karasa-jaga/build/next/cmd/lc_glueeditmode.png"
   inkscape:export-xdpi="96"
   inkscape:export-ydpi="96">
  <defs
     id="defs3410">
    <linearGradient
       inkscape:collect="always"
       id="linearGradient3310">
      <stop
         style="stop-color:#ffffff;stop-opacity:1;"
         offset="0"
         id="stop3312" />
      <stop
         style="stop-color:#ffffff;stop-opacity:0;"
         offset="1"
         id="stop3314" />
    </linearGradient>
    <linearGradient
       id="linearGradient3369">
      <stop
         style="stop-color:#ffffff;stop-opacity:1;"
         offset="0"
         id="stop3372" />
      <stop
         id="stop3374"
         offset="0.42597079"
         style="stop-color:#ffffff;stop-opacity:1;" />
      <stop
         id="stop3376"
         offset="0.5892781"
         style="stop-color:#f1f1f1;stop-opacity:1;" />
      <stop
         style="stop-color:#eaeaea;stop-opacity:1;"
         offset="0.80219781"
         id="stop3378" />
      <stop
         style="stop-color:#dfdfdf;stop-opacity:1;"
         offset="1"
         id="stop3384" />
    </linearGradient>
    <linearGradient
       id="linearGradient7422">
      <stop
         id="stop7424"
         offset="0"
         style="stop-color:#b4b4b6;stop-opacity:1;" />
      <stop
         style="stop-color:#9c9ca1;stop-opacity:1;"
         offset="0.5"
         id="stop5348" />
      <stop
         style="stop-color:#cdcdd1;stop-opacity:1;"
         offset="1"
         id="stop7426" />
    </linearGradient>
    <linearGradient
       inkscape:collect="always"
       xlink:href="#linearGradient3369"
       id="linearGradient5655"
       gradientUnits="userSpaceOnUse"
       gradientTransform="matrix(0.5833334,0,0,0.4444446,6.666668,-4.4444438)"
       x1="36.571423"
       y1="144.99995"
       x2="112"
       y2="27.999998" />
    <linearGradient
       inkscape:collect="always"
       xlink:href="#linearGradient7422-3"
       id="linearGradient5658"
       gradientUnits="userSpaceOnUse"
       gradientTransform="matrix(0.06477709,0,0,0.06505961,7.7958862,-31.751767)"
       x1="399.77466"
       y1="1164.6696"
       x2="399.77466"
       y2="549.06134" />
    <linearGradient
       id="linearGradient2399">
      <stop
         style="stop-color:#0968ef;stop-opacity:1;"
         offset="0"
         id="stop2401" />
      <stop
         style="stop-color:#aecffc;stop-opacity:1;"
         offset="1"
         id="stop2403" />
    </linearGradient>
    <linearGradient
       inkscape:collect="always"
       xlink:href="#linearGradient3310"
       id="linearGradient3316"
       x1="77.5625"
       y1="32"
       x2="108.625"
       y2="32"
       gradientUnits="userSpaceOnUse"
       gradientTransform="matrix(0.7098215,0,0,0.4598215,-0.948662,0.642857)" />
    <linearGradient
       inkscape:collect="always"
       xlink:href="#linearGradient2222"
       id="linearGradient1102"
       x1="58.852818"
       y1="-16.142143"
       x2="151.32086"
       y2="-19.120222"
       gradientUnits="userSpaceOnUse"
       gradientTransform="matrix(0.99999997,0,0,0.57322316,-14.852818,59.545942)" />
    <linearGradient
       inkscape:collect="always"
       id="linearGradient2222">
      <stop
         style="stop-color:#0066ff;stop-opacity:1"
         offset="0"
         id="stop2224" />
      <stop
         style="stop-color:#80b3ff;stop-opacity:1"
         offset="1"
         id="stop2226" />
    </linearGradient>
    <linearGradient
       inkscape:collect="always"
       xlink:href="#linearGradient2399"
       id="linearGradient1100"
       x1="-21.213205"
       y1="-80.024391"
       x2="25.455845"
       y2="-104.6518"
       gradientUnits="userSpaceOnUse"
       gradientTransform="matrix(0.99999999,0,0,0.50000003,64.142139,-28.573589)" />
    <linearGradient
       id="linearGradient7422-3">
      <stop
         id="stop7424-6"
         offset="0"
         style="stop-color:#a7a7a9;stop-opacity:1" />
      <stop
         style="stop-color:#7d7d83;stop-opacity:1"
         offset="0.5"
         id="stop5348-7" />
      <stop
         style="stop-color:#aaaab1;stop-opacity:1"
         offset="1"
         id="stop7426-5" />
    </linearGradient>
    <linearGradient
       id="d"
       gradientUnits="userSpaceOnUse"
       x1="104.00008"
       x2="104.00008"
       y1="55.600807"
       y2="162.26588">
      <stop
         offset="0"
         stop-color="#99999c"
         id="stop23" />
      <stop
         offset=".5"
         stop-color="#9c9ca1"
         id="stop25" />
      <stop
         offset="1"
         stop-color="#cdcdd1"
         id="stop27" />
    </linearGradient>
    <linearGradient
       id="e"
       gradientUnits="userSpaceOnUse"
       x1="85.394646"
       x2="123.64955"
       y1="94.381111"
       y2="115.1846">
      <stop
         offset="0"
         stop-color="#fff"
         id="stop30" />
      <stop
         offset="1"
         stop-color="#ccc"
         id="stop32" />
    </linearGradient>
    <linearGradient
       id="f"
       gradientUnits="userSpaceOnUse"
       x1="88.38102"
       x2="130.48599"
       y1="1008.9966"
       y2="1015.6953">
      <stop
         offset="0"
         stop-color="#7b7b7b"
         id="stop35" />
      <stop
         offset="1"
         stop-color="#797979"
         stop-opacity="0"
         id="stop37" />
    </linearGradient>
    <filter
       style="color-interpolation-filters:sRGB"
       id="g"
       height="1.073732"
       width="1.13754"
       x="-0.068769999"
       y="-0.036866002">
      <feGaussianBlur
         stdDeviation="1.0557314"
         id="feGaussianBlur40" />
    </filter>
    <linearGradient
       id="h"
       gradientUnits="userSpaceOnUse"
       x1="105.76633"
       x2="120.06033"
       y1="47.759666"
       y2="87.113503">
      <stop
         offset="0"
         stop-color="#fff"
         stop-opacity=".683453"
         id="stop43" />
      <stop
         offset="1"
         stop-color="#fff"
         stop-opacity="0"
         id="stop45" />
    </linearGradient>
    <linearGradient
       id="i"
       gradientTransform="matrix(0.53433953,0,0,0.61119966,70.330321,-506.53199)"
       gradientUnits="userSpaceOnUse"
       x1="63.011921"
       x2="63.011921"
       y1="945.89801"
       y2="1033.1569">
      <stop
         offset="0"
         stop-color="#545454"
         stop-opacity=".988"
         id="stop48" />
      <stop
         offset="1"
         stop-color="#ebebeb"
         id="stop50" />
    </linearGradient>
    <linearGradient
       id="j"
       gradientTransform="matrix(0.44041585,0,0,0.60663672,131.34153,-517.37269)"
       gradientUnits="userSpaceOnUse"
       x1="-60.535713"
       x2="-60.357143"
       y1="979.50507"
       y2="1009.505">
      <stop
         offset="0"
         stop-color="#979797"
         id="stop53" />
      <stop
         offset=".148461"
         stop-color="#f6f6f6"
         id="stop55" />
      <stop
         offset=".28399727"
         stop-color="#e2e2e2"
         id="stop57" />
      <stop
         offset=".41198727"
         stop-color="#dedede"
         id="stop59" />
      <stop
         offset=".41198727"
         stop-color="#f6f6f6"
         id="stop61" />
      <stop
         offset="1"
         stop-color="#6b6b6b"
         id="stop63" />
    </linearGradient>
    <linearGradient
       id="k"
       gradientTransform="matrix(0.44041583,0,0,-0.53450186,131.37093,-445.18578)"
       gradientUnits="userSpaceOnUse"
       x1="-61.078979"
       x2="-60.6413"
       y1="-1056.658"
       y2="-1010.9131">
      <stop
         offset="0"
         stop-color="#777"
         id="stop66" />
      <stop
         offset=".18176934"
         stop-color="#a8a8a8"
         id="stop68" />
      <stop
         offset=".22864534"
         stop-color="#cdcdcd"
         id="stop70" />
      <stop
         offset=".34561315"
         stop-color="#f7f7f7"
         id="stop72" />
      <stop
         offset="1"
         stop-color="#fff"
         id="stop74" />
    </linearGradient>
  </defs>
  <sodipodi:namedview
     id="base"
     pagecolor="#ffffff"
     bordercolor="#666666"
     borderopacity="1.0"
     inkscape:pageopacity="0.0"
     inkscape:pageshadow="2"
     inkscape:zoom="15.687501"
     inkscape:cx="10.2176"
     inkscape:cy="9.8139557"
     inkscape:document-units="px"
     inkscape:current-layer="g57"
     height="88px"
     width="88px"
     showborder="true"
     inkscape:showpageshadow="false"
     showgrid="true"
     inkscape:window-width="1366"
     inkscape:window-height="714"
     inkscape:window-x="0"
     inkscape:window-y="28"
     showguides="true"
     inkscape:guide-bbox="true"
     inkscape:window-maximized="1"
     inkscape:snap-global="false">
    <inkscape:grid
       id="GridFromPre046Settings"
       type="xygrid"
       originx="0"
       originy="0"
       spacingx="0.5"
       spacingy="0.5"
       color="#0000ff"
       empcolor="#0000ff"
       opacity="0.2"
       empopacity="0.4"
       empspacing="2" />
  </sodipodi:namedview>
  <metadata
     id="metadata3413">
    <rdf:RDF>
      <cc:Work
         rdf:about="">
        <dc:format>image/svg+xml</dc:format>
        <dc:type
           rdf:resource="http://purl.org/dc/dcmitype/StillImage" />
        <dc:title></dc:title>
      </cc:Work>
    </rdf:RDF>
  </metadata>
  <g
     inkscape:label="Livello 1"
     inkscape:groupmode="layer"
     id="layer1"
     transform="translate(0,-64)">
    <g
       id="g57"
       transform="matrix(0.25,0,0,0.25,0,66)">
      <rect
         inkscape:export-ydpi="90"
         inkscape:export-xdpi="90"
         inkscape:export-filename="/home/pinheiro/Desktop/mock2.png"
         style="fill:url(#linearGradient5658);fill-opacity:1;fill-rule:nonzero;stroke:none;stroke-width:2;stroke-linecap:round;stroke-linejoin:round;stroke-miterlimit:4;stroke-dasharray:none;stroke-dashoffset:4;stroke-opacity:1"
         id="rect2894"
         width="80"
         height="80"
         x="8"
         y="0"
         inkscape:r_cx="true"
         inkscape:r_cy="true"
         ry="4.1442308"
         rx="4.1442308" />
      <rect
         ry="1.4444445"
         rx="1.4999998"
         y="4"
         x="12"
         height="72"
         width="72"
         id="rect4026"
         style="fill:url(#linearGradient5655);fill-opacity:1;fill-rule:evenodd;stroke:none;stroke-width:8;stroke-linecap:round;stroke-linejoin:round;stroke-miterlimit:4;stroke-dasharray:none;stroke-opacity:1" />
      <path
         sodipodi:nodetypes="ccccc"
         inkscape:connector-curvature="0"
         id="path2336"
         d="M 64,4 C 56.416575,8.335233 30.424585,70.309995 25.995954,76 h 19.320452 c 1.082101,-5.447495 23.343355,-67.654296 28,-72 z"
         style="fill:url(#linearGradient3316);fill-opacity:1;fill-rule:evenodd;stroke:none;stroke-width:1px;stroke-linecap:butt;stroke-linejoin:miter;stroke-opacity:1" />
      <g
         transform="matrix(-0.48613591,0.48613591,0.48613591,0.48613591,60.552606,-20.400361)"
         id="g1639">
        <rect
           style="fill:url(#linearGradient1102);fill-opacity:1;stroke:none;stroke-width:0.72957456"
           id="rect8491-3"
           width="52.36364"
           height="5.8181834"
           x="44.883804"
           y="46.449421" />
        <rect
           y="-73.974716"
           x="23.176695"
           height="5.8181825"
           width="52.363636"
           id="rect248"
           style="fill:url(#linearGradient1100);fill-opacity:1;stroke:none;stroke-width:0.68138546"
           transform="rotate(90)" />
      </g>
      <g
         id="g119"
         clip-path="none"
         transform="matrix(0.75,0,0,0.75,-1.9999968,-9.6999997)">
        <path
           inkscape:connector-curvature="0"
           style="fill:url(#d);stroke-width:0.91666597"
           id="path101"
           d="M 77.333809,55.600821 H 130.66635 V 130.26642 H 77.333809 Z"
           clip-path="none" />
        <path
           inkscape:connector-curvature="0"
           style="fill:url(#e);stroke-width:0.91666597"
           id="path103"
           d="M 82.667064,60.934061 H 125.33309 V 124.93313 H 82.667064 Z"
           clip-path="none" />
        <path
           inkscape:connector-curvature="0"
           style="opacity:0.68000034;fill:url(#f);fill-rule:evenodd;filter:url(#g)"
           id="path105"
           transform="matrix(0.63533481,0,0,0.63533481,51.059149,-537.63947)"
           d="m 92.81509,1029.6319 c 1.071428,1.4286 10.71429,15.3572 11.78571,13.5715 1.07143,-1.7858 22.1275,-24.0868 20.69893,-25.5154 -1.42857,-1.4285 -29.627497,-43.05607 -29.627497,-43.05607 z"
           clip-path="none" />
        <g
           style="stroke-width:0.91666597"
           id="g117">
          <path
             inkscape:connector-curvature="0"
             style="fill:url(#h);fill-rule:evenodd"
             id="path107"
             d="M 82.667064,60.934061 V 104.27461 C 95.657743,89.149529 113.41064,83.047058 125.33272,81.33753 V 60.93455 Z"
             clip-path="none" />
          <path
             inkscape:connector-curvature="0"
             style="fill:url(#i)"
             id="path109"
             d="M 93.333572,71.600569 H 114.66659 V 114.2666 H 93.333572 Z"
             clip-path="none" />
          <path
             style="fill:#535353"
             inkscape:connector-curvature="0"
             id="path111"
             d="M 95.766494,74.165334 H 111.97931 V 111.8996 H 95.766494 Z"
             clip-path="none" />
          <path
             inkscape:connector-curvature="0"
             style="fill:url(#j)"
             id="path113"
             d="M 98.666826,76.933823 H 109.33333 V 92.933586 H 98.666826 Z"
             clip-path="none" />
          <path
             inkscape:connector-curvature="0"
             style="fill:url(#k)"
             id="path115"
             d="M 98.666826,119.59986 H 109.33333 V 92.933586 H 98.666826 Z"
             clip-path="none" />
        </g>
      </g>
    </g>
  </g>
</svg>
